X:379
T: EIN JAEGER ZOG ZU WALDE
N: F0673
O: Europa, Mitteleuropa, Deutschland
R: Staende -, Jaeger - Lied, Liebe
M: 4/4
L: 1/8
K: Bb
F2 | F3DF2B2 | F4D2
F2 | F3FGFGA | B4z2
d2 | c2zcdcBc | d4B2
d2 | c3CC2D=E | F4z2
F2 | c3cBAGA | B4F2
F2 | e3edcde | c4z2
F2 | d3dc2c2 | B3AG2
c2 | B3BBAGA | B4z2

